X:192
T: KOMM WIR WOLLEN WANDERN
N: K2446
O: Europa, Mitteleuropa, Deutschland
N: Modulierender Schluss
R: Kinder - Lied, Tanz -, Lauf - Spiel
M: 2/4
L: 1/16
K: C
 | G,2C2C2C2 | C2A,2G,4 |
A,4B,4 | C4z2
G,2 | C2C2C2C2 | C2_B,A,G,2z2 |
A,2z2A,2z2 | A,2G,F,E,2z2 |
A,2C2B,2A,^G, | A,8

